X:1
T:A Clean Heart
T:A Clean Heart
T:Fred H. Byshe
T:Walter Chalmers Smith, 1865
T:Public Domain Courtesy of the Cyber Hymnal™
T:Public Domain Courtesy of the Cyber Hymnal™
C:Fred H. Byshe
Z:Public Domain
Z:Courtesy of the Cyber Hymnal™
%%score ( 1 2 ) ( 3 4 ) ( 5 6 )
L:1/8
Q:1/4=100
M:3/4
K:Bb
V:1 treble 
V:2 treble 
V:3 treble 
V:4 treble 
V:5 bass 
V:6 bass 
V:1
 DE =E | F3 d d>c | B3 F DF | A3 A c>G | (G2 !fermata!F)D E=E | F3 d d>c | !fermata!B3 B BB | %7
w: 1.~One thing I|of the Lord de-|sire, For all my|path hath mir- y|been, * Be it by|wa- ter or by|fire, O make me|
w: 2.~If clear- er|vi- sion Thou im-|part, Grate- ful and|glad my soul shall|be; * But yet to|have a pur- er|heart Is more to|
w: 3.~Yea, on- ly|as this heart is|clean May larg- er|vi- sion yet be|mine, * For mir- rored|in its depths are|seen The things di-|
w: 4.~I watch to|shun the mir- y|way, And stanch the|springs of guilt- y|thought, * But, watch and|strug- gle as I|may, Pure I am|
 !fermata!B2 z"^riten." D D>C | B,3 ||"^Refrain" BA>G | F3 z DF>D | F3 z AG>F | A3 z GF>G | %13
w: clean, O make me|clean.|||||
w: me, Is more to|me.|||||
w: vine, The things di-|vine.|So wash me,|Thou, with- out, with-|in, Or purge with|fire, if that must|
w: not, Pure I am|not.|||||
 D3 B AG | F3 z DF^F | !fermata!G3 !fermata![GB] [FB][EB] | [Df]3 [Fd] [Ed]>[Ec] | B3 |] %18
w: |||||
w: |||||
w: be, No mat- ter|how, if on- ly|sin Die out in|me, Die out in|me.|
w: |||||
V:2
 x3 | x6 | x6 | x6 | x6 | x6 | x6 | x6 | x3 || x3 | (DD D2 D2) x | (EE E2 E2) x | (EE E2 E2) x | %13
 (DB, B,) x3 | (DD D2 D2) x | (EE E) x3 | x6 | (DE D) |] %18
V:3
 DE =E | F3 [Fd] [Gd]>[Ac] | [DFB]3 F DF | e4 e2 | ([Gd-]2 !fermata![Fd])D E=E | %5
 F3 [Fdf] [Gdf]>[Ace] | !fermata![GBd]3 d [_GB_d][GBd] | !fermata![FBd]2 z [DFB] [DFA]>[CEA] | %8
 [B,DB]3 || x3 | x7 | x7 | x7 | x6 | x7 | x6 | x6 | x3 |] %18
V:4
 x3 | x6 | x6 | A3 A c>G | x6 | x6 | x6 | x6 | x3 || x3 | x7 | x7 | x7 | x6 | x7 | x6 | x6 | x3 |] %18
V:5
 z3 | [B,,,B,,][F,B,D] [F,B,D]2 [F,CE]2 | [B,,,B,,] [F,B,D]2 [F,B,D]2 z | %3
w: |~ ~ ~ ~|~ ~ ~|
 ([F,,F,][F,A,C]) [F,A,C]2 [F,A,C]2 | ([B,,,B,,][F,B,D] !fermata![F,B,D]) z3 | %5
w: ~ * ~ ~|~ * *|
 ([B,,,B,,][F,B,D]) [F,B,D]2 [F,CE]2 | ([G,,G,][G,B,D] !fermata![G,B,D]) z [_G,,_G,][G,B,_D] | %7
w: ~ * ~ ~|~ * * ~ ~|
 [G,,F,]2 [F,B,D] z [F,,F,]2 | ([B,,F,]2 B,,,) || z3 | [B,,B,][B,,B,] [B,,F,]2 [B,,F,]2 x | %11
w: ~ ~ ~|~ *||Wash me, Thou, with-|
 [C,A,][C,A,] [C,A,]2 [C,A,]2 x | [F,C][F,C] [F,C]2 [F,C]2 x | [B,,B,][B,,G,] [B,,F,] z3 | %14
w: out, with- in, Or|purge with fire, if|that must be,|
 [B,,B,][B,,B,] [B,,F,]2 [B,,B,]2 x | [E,B,][E,B,] !fermata![E,B,]B, _A,G, | %16
w: An- y- how, if|on- ly sin Die out in|
 !fermata!F,3 !fermata![B,,F,] [F,A,]>[F,A,] | [B,,F,][B,,_G,] [B,,F,] |] %18
w: me, Die out, die|out in me.|
V:6
 x3 | x6 | x6 | x6 | x6 | x6 | x6 | x6 | x3 || x3 | x7 | x7 | x7 | x6 | x7 | x6 | (B,,B,, B,,) x3 | %17
 x3 |] %18

